src/assets/outline/Danger.svg

<svg width="24" height="24" viewBox="0 0 24 24"  xmlns="http://www.w3.org/2000/svg">
<path d="M12 14.75C11.59 14.75 11.25 14.41 11.25 14V9C11.25 8.59 11.59 8.25 12 8.25C12.41 8.25 12.75 8.59 12.75 9V14C12.75 14.41 12.41 14.75 12 14.75Z" />
<path d="M12 17.9996C11.94 17.9996 11.87 17.9896 11.8 17.9796C11.74 17.9696 11.68 17.9496 11.62 17.9196C11.56 17.8996 11.5 17.8696 11.44 17.8296C11.39 17.7896 11.34 17.7496 11.29 17.7096C11.11 17.5196 11 17.2596 11 16.9996C11 16.7396 11.11 16.4796 11.29 16.2896C11.34 16.2496 11.39 16.2096 11.44 16.1696C11.5 16.1296 11.56 16.0996 11.62 16.0796C11.68 16.0496 11.74 16.0296 11.8 16.0196C11.93 15.9896 12.07 15.9896 12.19 16.0196C12.26 16.0296 12.32 16.0496 12.38 16.0796C12.44 16.0996 12.5 16.1296 12.56 16.1696C12.61 16.2096 12.66 16.2496 12.71 16.2896C12.89 16.4796 13 16.7396 13 16.9996C13 17.2596 12.89 17.5196 12.71 17.7096C12.66 17.7496 12.61 17.7896 12.56 17.8296C12.5 17.8696 12.44 17.8996 12.38 17.9196C12.32 17.9496 12.26 17.9696 12.19 17.9796C12.13 17.9896 12.06 17.9996 12 17.9996Z" />
<path d="M18.06 22.1598H5.93998C3.98998 22.1598 2.49998 21.4498 1.73998 20.1698C0.989976 18.8898 1.08998 17.2398 2.03998 15.5298L8.09998 4.62984C9.09998 2.82984 10.48 1.83984 12 1.83984C13.52 1.83984 14.9 2.82984 15.9 4.62984L21.96 15.5398C22.91 17.2498 23.02 18.8898 22.26 20.1798C21.5 21.4498 20.01 22.1598 18.06 22.1598ZM12 3.33984C11.06 3.33984 10.14 4.05984 9.40998 5.35984L3.35998 16.2698C2.67998 17.4898 2.56998 18.6098 3.03998 19.4198C3.50998 20.2298 4.54998 20.6698 5.94998 20.6698H18.07C19.47 20.6698 20.5 20.2298 20.98 19.4198C21.46 18.6098 21.34 17.4998 20.66 16.2698L14.59 5.35984C13.86 4.05984 12.94 3.33984 12 3.33984Z" />
</svg>

<?xml version="1.0" encoding="UTF-8"?>
<svg width="24" height="24" viewBox="0 0 24 24" xmlns="http://www.w3.org/2000/svg">
 <path d="m12 14.75c-0.41 0-0.75-0.34-0.75-0.75v-5c0-0.41 0.34-0.75 0.75-0.75s0.75 0.34 0.75 0.75v5c0 0.41-0.34 0.75-0.75 0.75z"/>
 <path d="m12 18c-0.06 0-0.13-0.01-0.2-0.02-0.06-0.01-0.12-0.03-0.18-0.06-0.06-0.02-0.12-0.05-0.18-0.09l-0.15-0.12c-0.18-0.19-0.29-0.45-0.29-0.71s0.11-0.52 0.29-0.71l0.15-0.12c0.06-0.04 0.12-0.07 0.18-0.09 0.06-0.03 0.12-0.05 0.18-0.06 0.13-0.03 0.27-0.03 0.39 0 0.07 0.01 0.13 0.03 0.19 0.06 0.06 0.02 0.12 0.05 0.18 0.09l0.15 0.12c0.18 0.19 0.29 0.45 0.29 0.71s-0.11 0.52-0.29 0.71l-0.15 0.12c-0.06 0.04-0.12 0.07-0.18 0.09-0.06 0.03-0.12 0.05-0.19 0.06-0.06 0.01-0.13 0.02-0.19 0.02z"/>
 <path d="m18.06 22.16h-12.12c-1.95 0-3.44-0.71-4.2-1.99-0.75-1.28-0.65-2.93 0.3-4.64l6.06-10.9c1-1.8 2.38-2.79 3.9-2.79s2.9 0.99 3.9 2.79l6.06 10.91c0.95 1.71 1.06 3.35 0.3 4.64-0.76 1.27-2.25 1.98-4.2 1.98zm-6.06-18.82c-0.94 0-1.86 0.72-2.59 2.02l-6.05 10.91c-0.68 1.22-0.79 2.34-0.32 3.15s1.51 1.25 2.91 1.25h12.12c1.4 0 2.43-0.44 2.91-1.25s0.36-1.92-0.32-3.15l-6.07-10.91c-0.73-1.3-1.65-2.02-2.59-2.02z"/>
</svg>
